X:2467
T:Polska från Södermanland
T:Svenska Folkdansar H2 nr 16
O:Södermanland
B:Traditioner av Svenska Folkdansar Häfte 2, nr 16
R:Polska
Z:Nils L
U:V=wedge
M:3/4
L:1/16
K:Dm
d^cde  dcde   dcde   | d2AG   F2E2   F2D2   | fefg     fefg   fefg   |
f2cB   A2G2   A2F2   | Ta2ga  (b2a2  g2f2)  | {f/}e2de f8            ::
Va2VF2 VA2Vc2 (fagf) | Vg2VE2 VG2Vc2 (egfe) | Vf2VD2   VF2VA2 (dfed) |  ^c2d2   e2c2 A4  |
a2F2   A2c2   fagf   | g2E2   G2c2   egfe   | f2D2     F2A2   dfed   |  (^c2de) d8      :|
(:musicend:)
(:music:)
